images/volleyball_theme_dark.svg

<svg width="50" height="50" viewBox="0 0 50 50" fill="none" xmlns="http://www.w3.org/2000/svg">
<path d="M8.29875 6.00844C10.0607 4.45671 13.0762 2.47001 14.9999 1.59317C16.9236 0.717188 20.2393 0 22.3686 0H26.2401L22.7428 1.59317C20.8191 2.47001 17.8037 4.45671 16.0417 6.00844C14.2806 7.55931 11.8493 10.5238 10.6397 12.5942C9.43009 14.6655 8.15681 16.3597 7.81095 16.3597C7.4651 16.3597 6.30794 15.425 5.23855 14.2832C3.68651 12.627 3.47574 11.8658 4.19498 10.5178C4.69053 9.58915 6.53765 7.55931 8.29875 6.00844Z" fill="white"/>
<path d="M22.717 5.82202C24.6545 4.82954 27.208 3.72053 28.3909 3.35805C29.5739 2.99558 32.1377 2.6659 34.0872 2.62534C37.0381 2.5632 38.2623 3.11124 41.3793 5.88589L45.1244 9.21977L40.3977 10.5989C37.7969 11.3567 33.8755 13.1699 31.6817 14.6276C29.4879 16.0844 26.6694 18.6243 25.4176 20.2709C24.1658 21.9167 22.594 23.2639 21.9247 23.2639C21.2553 23.2639 18.8559 22.6434 16.5915 21.8848C14.3271 21.1262 12.1513 20.2001 11.7564 19.8265C11.3615 19.4528 11.6592 17.9424 12.418 16.4701C13.1768 14.9986 15.0119 12.4061 16.496 10.7111C17.9801 9.01523 20.7796 6.81537 22.717 5.82202Z" fill="white"/>
<path d="M40.4493 15.0651C40.4106 14.5904 41.8431 13.9656 43.6334 13.6773C45.4238 13.3882 47.0042 13.0974 47.147 13.0301C47.2898 12.9628 47.9936 14.3186 48.7119 16.0438C49.463 17.8458 50.0102 21.7217 49.9999 25.154C49.9852 29.6607 49.4544 32.2826 47.837 35.8262C46.6575 38.4101 45.5743 40.5246 45.4298 40.5246C45.2852 40.5246 45.1674 37.1268 45.1674 32.973C45.1674 26.515 44.831 24.7345 42.8436 20.6748C41.5652 18.0641 40.488 15.5398 40.4493 15.0651Z" fill="white"/>
<path d="M0 22.5278C0 20.6368 0.234866 18.4758 0.522216 17.725C0.809567 16.9741 1.24661 16.3597 1.49353 16.3597C1.74044 16.3597 3.49037 17.7629 5.38224 19.4778C7.27497 21.1926 10.435 23.3105 12.406 24.1856C14.377 25.0599 17.6617 26.0438 19.705 26.3717C22.8616 26.8774 23.6015 27.3996 24.6158 29.8351C25.2722 31.4118 25.8099 33.8792 25.8099 35.3188C25.8099 37.8707 25.7067 37.9355 21.6614 37.9355C19.3798 37.9355 15.6081 37.2848 13.2809 36.489C10.4685 35.5276 7.52961 33.5193 4.52362 30.5039C0.579859 26.5469 0 25.5251 0 22.5278Z" fill="white"/>
<path d="M28.0993 22.7418C28.8891 21.5327 30.9229 19.5917 32.6195 18.4275L35.7037 16.3113L37.6584 18.7088C38.733 20.0275 40.2317 23.213 40.9896 25.7883C41.8568 28.7399 42.1984 32.0884 41.9128 34.8501C41.6633 37.2589 40.7814 40.9267 39.9529 43.0006C38.7734 45.953 37.6825 47.119 34.9243 48.3756C32.9868 49.2576 30.5177 49.9886 29.4362 49.999C27.6528 50.0162 27.5693 49.8376 28.5389 48.0761C29.1299 47.0034 29.6246 43.0429 29.6444 39.23C29.6694 34.5558 29.1945 31.1331 28.1724 28.632C26.7597 25.1738 26.7554 24.7992 28.0993 22.7418Z" fill="white"/>
<path d="M2.50787 36.8912C1.60194 35.1298 0.860331 33.4615 0.860331 33.1828C0.860331 32.904 2.34354 33.8714 4.15712 35.3334C5.96984 36.7954 9.45849 38.7554 11.9087 39.6892C14.3753 40.629 18.4739 41.3876 21.0876 41.3876C25.1096 41.3876 25.8099 41.625 25.8099 42.9851C25.8099 43.8637 25.3849 45.8055 24.8653 47.3003C24.0729 49.5804 23.4845 50.0145 21.2089 49.999C19.7171 49.9886 16.7549 49.1903 14.6256 48.2254C12.4963 47.2606 9.26921 45.0365 7.45477 43.282C5.64034 41.5283 3.41466 38.6518 2.50787 36.8912Z" fill="white"/>
</svg>

<svg width="50" height="50" fill="none" xmlns="http://www.w3.org/2000/svg"><path d="M8.299 6.008c1.762-1.551 4.777-3.538 6.7-4.415C16.925.717 20.24 0 22.37 0h3.871l-3.497 1.593c-1.924.877-4.94 2.864-6.701 4.415-1.761 1.551-4.193 4.516-5.402 6.586-1.21 2.072-2.483 3.766-2.83 3.766-.345 0-1.502-.935-2.571-2.077-1.552-1.656-1.763-2.417-1.044-3.765.496-.929 2.343-2.959 4.104-4.51Zm14.418-.186c1.938-.992 4.491-2.101 5.674-2.464 1.183-.362 3.747-.692 5.696-.733 2.951-.062 4.175.486 7.292 3.26l3.745 3.335-4.726 1.379c-2.601.758-6.523 2.57-8.716 4.029-2.194 1.456-5.013 3.996-6.264 5.643-1.252 1.646-2.824 2.993-3.493 2.993-.67 0-3.07-.62-5.334-1.38-2.264-.758-4.44-1.684-4.835-2.058-.395-.373-.097-1.884.662-3.356.759-1.471 2.594-4.064 4.078-5.759 1.484-1.696 4.284-3.896 6.221-4.889Zm17.733 9.243c-.04-.475 1.393-1.1 3.183-1.388 1.79-.289 3.371-.58 3.514-.647.143-.067.847 1.289 1.565 3.014.751 1.802 1.298 5.678 1.288 9.11-.015 4.507-.546 7.129-2.163 10.672-1.18 2.584-2.263 4.699-2.407 4.699-.145 0-.263-3.398-.263-7.552 0-6.458-.336-8.238-2.323-12.298-1.279-2.61-2.356-5.135-2.395-5.61ZM0 22.528c0-1.891.235-4.052.522-4.803.288-.75.725-1.365.972-1.365.246 0 1.996 1.403 3.888 3.118 1.893 1.715 5.053 3.832 7.024 4.708 1.971.874 5.256 1.858 7.299 2.186 3.157.505 3.897 1.028 4.91 3.463.657 1.577 1.195 4.044 1.195 5.484 0 2.552-.103 2.616-4.149 2.616-2.281 0-6.053-.65-8.38-1.446-2.813-.961-5.751-2.97-8.757-5.985C.58 26.547 0 25.525 0 22.528Zm28.1.214c.79-1.21 2.823-3.15 4.52-4.315l3.084-2.116 1.954 2.398c1.075 1.319 2.574 4.504 3.332 7.08.867 2.95 1.208 6.3.923 9.061-.25 2.409-1.132 6.077-1.96 8.15-1.18 2.953-2.27 4.119-5.029 5.376-1.937.882-4.406 1.613-5.488 1.623-1.783.017-1.867-.161-.897-1.923.59-1.073 1.086-5.033 1.105-8.846.025-4.674-.45-8.097-1.472-10.598-1.412-3.458-1.417-3.833-.073-5.89ZM2.508 36.891C1.602 35.13.86 33.461.86 33.183c0-.279 1.484.688 3.297 2.15 1.813 1.462 5.301 3.422 7.752 4.356 2.466.94 6.565 1.699 9.179 1.699 4.022 0 4.722.237 4.722 1.597 0 .879-.425 2.82-.945 4.315-.792 2.28-1.38 2.715-3.656 2.699-1.492-.01-4.454-.809-6.583-1.774-2.13-.964-5.357-3.189-7.171-4.943-1.815-1.754-4.04-4.63-4.947-6.39Z" fill="#fff"/></svg>
